svg/coffee.svg

<svg xmlns="http://www.w3.org/2000/svg" viewBox="0 0 24 24"><path d="M2 21h18v-2H2M20 8h-2V5h2m0-2H4v10a4 4 0 0 0 4 4h6a4 4 0 0 0 4-4v-3h2a2 2 0 0 0 2-2V5a2 2 0 0 0-2-2"/></svg>

<?xml version="1.0" encoding="UTF-8"?><!DOCTYPE svg PUBLIC "-//W3C//DTD SVG 1.1//EN" "http://www.w3.org/Graphics/SVG/1.1/DTD/svg11.dtd"><svg xmlns="http://www.w3.org/2000/svg" xmlns:xlink="http://www.w3.org/1999/xlink" version="1.1" id="mdi-coffee" width="24" height="24" viewBox="0 0 24 24"><path d="M2,21H20V19H2M20,8H18V5H20M20,3H4V13A4,4 0 0,0 8,17H14A4,4 0 0,0 18,13V10H20A2,2 0 0,0 22,8V5C22,3.89 21.1,3 20,3Z" /></svg>
